X:20
T:The Humours Of Lisheen
R:slide
M:6/8
L:1/8
%Q:3/8=130
Q:3/8=110
K:Gmaj
d3 d3 d3 d2d
%
|:efg edB|c2A BGE|GFG BdB|BAG ABd|
efg edB|cBA BGE|GFG BdB|1 AGG GBd:|2 AGG G2D||
|: GBd gfg|agf g2f|gfe fdB|cBA BGE|
GBd gfg|agf g2f|gfg B/c/dB|1 AGG G2D:|2 AGG GBd||
%
|:efg edB|c2A BGE|GFG BdB|BAG ABd|
efg edB|cBA BGE|GFG BdB|1 AGG GBd:|2 AGG G2D||
|: GBd gfg|agf g2f|gfe fdB|cBA BGE|
GBd gfg|agf g2f|gfg B/c/dB|1 AGG G2D:|2 AGG GBd||
%
|:efg edB|c2A BGE|GFG BdB|BAG ABd|
efg edB|cBA BGE|GFG BdB|1 AGG GBd:|2 AGG G2D||
|: GBd gfg|agf g2f|gfe fdB|cBA BGE|
GBd gfg|agf g2f|gfg B/c/dB|1 AGG G2D:|2 AGG GBd||
%
|:efg edB|c2A BGE|GFG BdB|BAG ABd|
efg edB|cBA BGE|GFG BdB|1 AGG GBd:|2 AGG G2D||
|: GBd gfg|agf g2f|gfe fdB|cBA BGE|
GBd gfg|agf g2f|gfg B/c/dB|1 AGG G2D:|2 AGG GBd||
%
|:efg edB|c2A BGE|GFG BdB|BAG ABd|
efg edB|cBA BGE|GFG BdB|1 AGG GBd:|2 AGG G2D||
|: GBd gfg|agf g2f|gfe fdB|cBA BGE|
GBd gfg|agf g2f|gfg B/c/dB|1 AGG G2D:|2 AGG GBd||
%
|:efg edB|c2A BGE|GFG BdB|BAG ABd|
efg edB|cBA BGE|GFG BdB|1 AGG GBd:|2 AGG G2D||
|: GBd gfg|agf g2f|gfe fdB|cBA BGE|
GBd gfg|agf g2f|gfg B/c/dB|1 AGG G2D:|2 AGG GBd||
%
|:efg edB|c2A BGE|GFG BdB|BAG ABd|
efg edB|cBA BGE|GFG BdB|1 AGG GBd:|2 AGG G2D||
|: GBd gfg|agf g2f|gfe fdB|cBA BGE|
GBd gfg|agf g2f|gfg B/c/dB|1 AGG G2D:|2 AGG GBd||
%
|:efg edB|c2A BGE|GFG BdB|BAG ABd|
efg edB|cBA BGE|GFG BdB|1 AGG GBd:|2 AGG G2D||
|: GBd gfg|agf g2f|gfe fdB|cBA BGE|
GBd gfg|agf g2f|gfg B/c/dB|1 AGG G2D:|2 AGG GBd||
%
|:efg edB|c2A BGE|GFG BdB|BAG ABd|
efg edB|cBA BGE|GFG BdB|1 AGG GBd:|2 AGG G2D||
|: GBd gfg|agf g2f|gfe fdB|cBA BGE|
GBd gfg|agf g2f|gfg B/c/dB|1 AGG G2D:|2 AGG GBd||
%

